X: 100355
P: AERIAL QUADRILLE part 2.
M: 2/4
L: 1/8
K: Bb
[|\
a2g/f/ gf | f2e/d/ ed | dc/B/ FA | Bz vb ||
uF |\
dedc | Bdf2 | (gf)Af | d3F |\
dedc | Bdf2 | (gf)ec | B3B |
ccd=e | fgab | agga | gf c(A/B/) |\


